X: 118102
T: BIODAG AIN M' OMISH
Q: "Reel."
R:  Reel.
%R: reel
B: James Kerr "Merry Melodies" v.1 p.18 s.1 #2
Z: 2017 John Chambers <jc:trillian.mit.edu>
M: C
L: 1/8
K: A
ud |\
(cA) (3(cde) c2(Ac) | B=GdG B2(GB) |\
(cA) (3(cde) c2(Ac) | B=GdB A2-A :|\
ug |\
aeec a2(ef) | =gddB g2(d^g) |
aeec a2(ed) | cABG A2-Ag |\
aeec a2(ef) | =gddB g2(d^g) |\
aeec a2(ed) | cABG A2-A |]

%%sep 1 1 500
%%sep 1 1 500

